src/img/Group.svg

<svg width="18" height="14" viewBox="0 0 18 14" fill="none" xmlns="http://www.w3.org/2000/svg">
<path d="M15.7999 0H2.20006C0.984683 0 0 0.984683 0 2.20006V11.4955C0 12.7108 0.984683 13.6955 2.20006 13.6955H15.7943C17.0097 13.6955 17.9944 12.7108 17.9944 11.4955V2.20569C18 0.99031 17.0153 0 15.7999 0ZM16.9984 11.4955C16.9984 12.1538 16.4639 12.6883 15.8056 12.6883H2.20006C1.54173 12.6883 1.00719 12.1538 1.00719 11.4955V2.20569C1.00719 1.54736 1.54173 1.01282 2.20006 1.01282H15.7943C16.4526 1.01282 16.9872 1.54736 16.9872 2.20569L16.9984 11.4955Z" fill="#26B899"/>
<path d="M11.3494 6.73508L15.7552 2.78509C15.9577 2.59941 15.9802 2.28431 15.7945 2.07612C15.6089 1.87356 15.2938 1.85105 15.0856 2.03673L9.00867 7.48343L7.82705 6.4256C7.82142 6.41998 7.82142 6.41998 7.82142 6.41435C7.79329 6.38622 7.77078 6.36371 7.73702 6.3412L2.91488 2.03111C2.70669 1.84542 2.39159 1.8623 2.20591 2.07049C2.02023 2.27868 2.03711 2.59378 2.2453 2.77946L6.70169 6.76321L2.2678 10.9158C2.06524 11.1071 2.05399 11.4222 2.2453 11.6247C2.34658 11.7316 2.48162 11.7823 2.61666 11.7823C2.74045 11.7823 2.86424 11.7373 2.9599 11.6472L7.46131 7.43279L8.68232 8.52438C8.77797 8.60879 8.89613 8.6538 9.01992 8.6538C9.14371 8.6538 9.26187 8.60879 9.35753 8.52438L10.6123 7.39903L15.0912 11.6529C15.1869 11.7485 15.3163 11.7879 15.4401 11.7879C15.5751 11.7879 15.7045 11.7373 15.8058 11.6304C15.9971 11.4278 15.9859 11.1071 15.7889 10.9214L11.3494 6.73508Z" fill="#26B899"/>
</svg>

<svg width="18" height="14" fill="none" xmlns="http://www.w3.org/2000/svg"><path d="M15.8 0H2.2A2.2 2.2 0 000 2.2v9.295a2.2 2.2 0 002.2 2.2h13.594a2.2 2.2 0 002.2-2.2v-9.29A2.196 2.196 0 0015.8 0zm1.198 11.495c0 .659-.534 1.193-1.192 1.193H2.2a1.193 1.193 0 01-1.193-1.193v-9.29c0-.658.535-1.192 1.193-1.192h13.594c.659 0 1.193.534 1.193 1.193l.011 9.29z" fill="#26B899"/><path d="M11.35 6.735l4.405-3.95a.505.505 0 00.04-.709.505.505 0 00-.71-.04L9.01 7.484 7.827 6.426c-.006-.006-.006-.006-.006-.012a.537.537 0 00-.084-.073l-4.822-4.31a.5.5 0 00-.71.04.5.5 0 00.04.708l4.457 3.984-4.434 4.153a.5.5 0 00.349.866.5.5 0 00.343-.135l4.5-4.214 1.221 1.091a.507.507 0 00.676 0L10.612 7.4l4.48 4.254a.488.488 0 00.348.135.504.504 0 00.349-.867l-4.44-4.186z" fill="#26B899"/></svg>
